icons/svg/leaf-two.svg

<svg width="24" height="24" viewBox="0 0 24 24" fill="none" xmlns="http://www.w3.org/2000/svg">
<path d="M7.35 8.1L9.28001 10.03M14.5571 13.6929L8 20.25M12.8724 7.08798C13.5264 6.86877 14.2264 6.75 14.9542 6.75H18.0089C19.2309 6.75 19.8419 6.75 20.3086 6.98782C20.7192 7.19701 21.053 7.5308 21.2622 7.94135C21.5 8.4081 21.5 9.01909 21.5 10.2411L21.5 13.2958C21.5 16.9109 18.5693 19.8416 14.9542 19.8416C11.5499 19.8416 8.75249 17.2427 8.43786 13.9207M12.8724 7.08798C12.1579 5.13996 10.2869 3.75 8.09117 3.75L5.71529 3.75C4.76485 3.75 4.28963 3.75 3.92661 3.93497C3.60729 4.09767 3.34767 4.35729 3.18497 4.67661C3 5.03963 3 5.51485 3 6.46529L3 8.84117C3 11.6529 5.27939 13.9323 8.09117 13.9323C8.20769 13.9323 8.32329 13.9284 8.43786 13.9207M12.8724 7.08798C11.3466 7.59945 10.0715 8.65771 9.28001 10.03M8.43786 13.9207C8.41838 13.715 8.40841 13.5066 8.40841 13.2958C8.40841 12.1065 8.72561 10.9912 9.28001 10.03" stroke="currentColor" stroke-width="1.5" stroke-linecap="round" stroke-linejoin="round"/>
</svg>

<svg xmlns="http://www.w3.org/2000/svg" width="24" height="24" fill="none" viewBox="0 0 24 24"><path stroke="currentColor" stroke-linecap="round" stroke-linejoin="round" stroke-width="1.5" d="m7.35 8.1 1.93 1.93m5.277 3.663L8 20.25m4.872-13.162a6.5 6.5 0 0 1 2.082-.338h3.055c1.222 0 1.833 0 2.3.238.41.209.744.543.953.953.238.467.238 1.078.238 2.3v3.055a6.546 6.546 0 0 1-13.062.625m4.434-6.833a5.09 5.09 0 0 0-4.78-3.338H5.714c-.95 0-1.425 0-1.788.185a1.7 1.7 0 0 0-.742.742C3 5.04 3 5.515 3 6.465v2.376a5.09 5.09 0 0 0 5.438 5.08m4.434-6.833A6.57 6.57 0 0 0 9.28 10.03m-.842 3.89a6.5 6.5 0 0 1 .842-3.89"/></svg>
